src/lib/packages/icons/src/assets/filled/home-roof-trend-down.svg

<svg width="24" height="24" viewBox="0 0 24 24" fill="none" xmlns="http://www.w3.org/2000/svg">
<path d="M21.477 9.08502L14.0649 2.98907C12.8679 2.00707 11.133 2.00607 9.93598 2.98907L2.52399 9.08404C2.20499 9.34704 2.15796 9.81907 2.42096 10.1401C2.68396 10.4611 3.15699 10.5051 3.47699 10.2431L4.49994 9.40106V18.0001C4.49994 20.2901 5.70994 21.5001 7.99994 21.5001H15.9999C18.2899 21.5001 19.4999 20.2901 19.4999 18.0001V9.40204L20.5229 10.2441C20.6629 10.3591 20.8319 10.4151 20.9999 10.4151C21.2159 10.4151 21.4309 10.322 21.5789 10.142C21.8429 9.82003 21.796 9.34802 21.477 9.08502ZM16.7499 15.6871C16.7499 15.7851 16.73 15.8822 16.692 15.9742C16.616 16.1572 16.4699 16.303 16.2869 16.379C16.1949 16.417 16.0979 16.4371 15.9999 16.4371H13.4999C13.0859 16.4371 12.7499 16.1011 12.7499 15.6871C12.7499 15.2731 13.0859 14.9371 13.4999 14.9371H14.1889L12.6309 13.379L11.535 14.5582C10.992 15.1012 10.0419 15.1032 9.49591 14.5582L7.46991 12.5311C7.17691 12.2381 7.17691 11.763 7.46991 11.47C7.76291 11.177 8.23795 11.177 8.53095 11.47L10.5579 13.4971L11.654 12.3182C12.199 11.7732 13.1479 11.7742 13.6929 12.3182L15.2509 13.876V13.1871C15.2509 12.7731 15.5869 12.4371 16.0009 12.4371C16.4149 12.4371 16.7509 12.7731 16.7509 13.1871V15.6871H16.7499Z" fill="currentColor"/>
</svg>

<svg xmlns="http://www.w3.org/2000/svg" width="24" height="24" fill="none"><path fill="currentColor" d="m21.477 9.085-7.412-6.096a3.26 3.26 0 0 0-4.129 0L2.524 9.084a.751.751 0 0 0 .953 1.16L4.5 9.4V18c0 2.29 1.21 3.5 3.5 3.5h8c2.29 0 3.5-1.21 3.5-3.5V9.401l1.023.842a.749.749 0 0 0 1.056-.102.751.751 0 0 0-.102-1.057Zm-4.727 6.602a.751.751 0 0 1-.75.75h-2.5a.75.75 0 0 1 0-1.5h.689L12.63 13.38l-1.096 1.18c-.543.542-1.493.544-2.04 0L7.47 12.53a.75.75 0 0 1 1.06-1.06l2.027 2.027 1.096-1.179c.545-.545 1.494-.544 2.039 0l1.558 1.558v-.689a.75.75 0 0 1 1.5 0v2.5h-.001Z"/></svg>
